X:1
T:Look for Me!
T:Charles Austin Miles, circa 1905
T:Look for Me!
T:Public Domain
T:Public Domain
C:Charles Austin Miles, circa 1905
Z:Public Domain
%%score ( 1 2 ) ( 3 4 )
L:1/8
M:4/4
K:Ab
V:1 treble 
V:2 treble 
V:3 bass 
V:4 bass 
V:1
 C[CE] | [CA]2 [CA]2 [CA][B,G][CA][DB] | [Ec]2 [CA]2 [CE]2 [CE][CE] | [DF]2 [FA]2 [EG]2 [DF]2 | %4
w: 1.~When you|to Heav- en, as you sure-|ly will, If the Sav-|ior’s name you own,|
w: 2.~When you|with friends a- cross the heav’n-|ly fields, Ev- er find-|ing trea- sures new;|
w: 3.~When you|them sing- ing, round the great|white throne, Songs of praise|un- to the Lamb;|
w: 4.~When you|in wor- ship to the King|of kings, Who has saved|you by His grace;|
 [CE]6 [DG][CA] | [DB]2 [DB]2 [DB][CA][Ec][DB] | [CA]2 [DB]2 [Ec]2 [Ec][Ec] | %7
w: Af- ter you|have greet- ed those you love|the best, Who are stand-|
w: When you stand|in rap- ture on some star-|ry height, Gaz- ing on|
w: When you hear|the ran- somed, with their harps|of gold, Shout- ing, “Glo-|
w: When you see|that Sav- ior who has brought|you there, And with joy|
 [=DB]2 [DF]2 [DG]2 [DA]2 | [DB]6 ||"^Refrain" [CA][DB] | [Ec]2 [Ec]2 [Ec][CA][DF][DA] | %11
w: ing round the throne—|You|may look|for me, for I’ll be there,|
w: some glor- ious view—||||
w: ry to His name!”—||||
w: be- hold His face—||||
 [CE]6 [B,G][CA] | [DB]6 [CA][DB] | [Ec]6 [CA][DB] | [Ec]2 [Ec]2 [Ec][CA][DF][DA] | %15
w: I’ll be there,|I’ll be there!|You may look|for me, for I’ll be there!|
w: ||||
w: ||||
w: ||||
 [CE]6 [Fd]>[Fd] | [Ec]4 [DB]4 | (C2 DD C2) |] %18
w: Glo- ry to|His name!||
w: |||
w: |||
w: |||
V:2
 C x | x8 | x8 | x8 | x8 | x8 | x8 | x8 | x6 || x2 | x8 | x8 | x8 | x8 | x8 | x8 | x8 | A6 |] %18
w: get||||||||||||||||||
w: roam||||||||||||||||||
w: hear||||||||||||||||||
w: kneel||||||||||||||||||
V:3
 [A,,A,][A,,A,] | [A,,A,]2 [A,,A,]2 [A,,A,][A,,A,][A,,A,][A,,A,] | %2
w: ~ ~|~ ~ ~ ~ ~ ~|
 [A,,A,]2 [A,,A,]2 [A,,A,]2 [A,,A,][A,,A,] | [D,A,]2 [D,D]2 [D,D]2 [D,A,]2 | %4
w: ~ ~ ~ ~ ~|~ ~ ~ ~|
 [A,,A,]6 [E,B,][E,A,] | [E,G,]2 [E,G,]2 [E,G,][E,A,][E,A,][E,G,] | %6
w: ~ ~ ~|~ ~ ~ ~ ~ ~|
 [A,,A,]2 [A,,A,]2 [A,,A,]2 [A,,A,][A,,A,] | [B,,F,]2 [B,,B,]2 [B,,B,]2 [B,,B,]2 | %8
w: ~ ~ ~ ~ ~|~ ~ ~ ~|
 (E,2 E,F, E,D,) || [C,A,][B,,A,] | [A,,A,]2 [A,,A,]2 [A,,A,][A,,A,][D,A,][F,A,] | %11
w: ~ * * * *|~ ~|~ ~ ~ ~ ~ ~|
 A,2 A,A, A,2 z2 | z2 [E,G,][E,G,] (E,D,)[C,A,][B,,G,] | [A,,A,]2 [C,A,][E,A,] A,2 [A,,A,][A,,A,] | %14
w: I’ll be there, I’ll|~ I’ll be * there, ~|~ ~ ~ ~ ~ ~|
 [A,,A,]2 [A,,A,]2 [A,,A,][A,,A,][D,A,][F,A,] | A,2 A,A, A,2 [D,A,]>[D,A,] | [E,A,]4 [E,G,]4 | %17
w: I’ll be there! * * *|||
 (A,2 F,F, E,2) |] %18
w: |
V:4
 x2 | x8 | x8 | x8 | x8 | x8 | x8 | x8 | G,6 || x2 | x8 | A,2 A,A, A,2 x2 | x4 G,2 x2 | x4 A,2 x2 | %14
w: ||||||||~|||be there, ~ ~|~|~|
 x8 | A,2 A,A, A,2 x2 | x8 | A,,6 |] %18
w: ||||

